X:1
T:The King Is Coming in Glory
T:Kittie Louise Jennett Suffield (1884-1972)
T:The King Is Coming in Glory
T:Public Domain
T:Public Domain
T:Public Domain
C:Kittie Louise Jennett Suffield (1884-1972)
Z:Public Domain
%%score 1 ( 2 3 )
L:1/8
M:4/4
K:C
V:1 treble 
V:2 bass 
V:3 bass 
V:1
 [CE][DF][^D^F] | [EG][EG] z [FA] [EG][EG] z [^D^F] | [EG][Ec][GB][FA] [EG]2 z ([EG]/[EA]/) | %3
w: 1.~The King is|com- ing in glo- ry To|catch His bride a- way, It *|
w: 2.~Be- hold! He|com- eth, and leap- ing, And|skip- ping o’er the hills; Like~the *|
w: 3.~The King is|com- ing, “Be read- y,” To|meet Him on that day; With~your *|
 [DF][DF] z [DF]/[EG]/ [CE][CE] z [CE] | [CD][CD][CE][D^F] [B,G]3 [=FG]/[FG]/ | %5
w: may be in the morn- ing It|may be at mid- day, At the|
w: young roe, like the young hart, My|soul with rap- ture thrills; Thru the|
w: heart right, with your robes white, And|in this ho- ly way; Like the|
 [EG][EG] z [FA] [EG][EG] z ([EG]/[EG]/) | [FA][Ac][GB][FA] [EG]2 z [EG] | %7
w: ev- en or mid- night; The *|trump will sound so clear, The|
w: win- dow He’s look- ing, Thru~the *|lat- tice work is seen, The|
w: light- ning that flash- es In~the *|twink- ling of an eye, Our|
 [FA][Ac][GB][FA] [EG][Ec][DB][Ec] | [Ge]2 [FBd]2 [Ec] |:"^Refrain" [EG][EA][E^A] | %10
w: dead in Christ, and we that live, His|voice shall hear.|The King is|
w: win- ter’s past, the rain is o’er, The|figs are green.|~ ~ ~|
w: Lord shall come to claim His own, He’s|draw- ing nigh.|The saints are|
 [FB][FB] z [FA]/[F^A]/ [FB][FB] z [FB] | [FA][FA] [FA]>[CE] [EG]3 [_E_G] | %12
w: com- ing, hal- le- lu- jah! He’s|com- ing in the air, The|
w: ~ ~ ~ ~ ~ ~ ~|~ ~ ~ ~ ~ ~|
w: look- ing ev- er up- ward While|journ- ’ing on their way. *|
 [DF][DF] z [EG] [FB][FB] z [FB] | [FA][CA][DA][^DA] [EG] :| [EG] | %15
w: fig tree is bud- ding, The|signs are ev- ery- where,||
w: ~ ~ ~ ~ ~ ~|~ ~ ~ ~ ~|He’s|
w: |||
 [FA][GB][Ac][_Ad] [Ge][Gc] z [F=A] | [EG][Ec] [Fd]>[Fc] [Ec] |] %17
w: ||
w: com- ing, hal- le- lu- jah! To|catch His bride a- way.|
w: ||
V:2
 z z2 | C,2 [E,C]2 G,,2 [G,C]2 | C,2 [F,C]2 C,2 [G,C]2 | [B,,G,]2 G,,2 [C,G,]2 A,,2 | %4
 [D,^F,]2 [D,A,]2 [B,,G,]3 z | C,2 [G,C]2 G,,2 [G,C]2 | [F,,F,]2 [F,C]2 [C,C]2 G,2 | %7
 [F,,F,]2 [C,C]2 [C,C]2 _A,2 | [G,C]2 [G,,G,]2 [C,G,] |: [C,G,][C,G,][^C,G,] | %10
 [D,G,][D,G,] z [D,G,]/[D,G,]/ G,G, z [G,B,] | [C,C][C,C] [C,C]>[C,G,] [C,C]3 [C,A,] | %12
 [B,,G,][B,,G,] z [B,,G,] [G,,G,][G,,G,] z [G,,G,] | [C,A,][C,F,][C,F,][C,^F,] [C,G,] :| [C,C] | %15
 [F,C][F,C][F,C][F,C] [C,C][E,C] z [F,C] | [G,C]G, [G,B,]>[G,C] [C,C] |] %17
V:3
 x3 | x8 | x8 | x8 | x8 | x8 | x8 | x8 | x5 |: x3 | x4 G,G, x2 | x8 | x8 | x5 :| x | x8 | %16
 x G, x3 |] %17

